X: 1
T: Tok Jöns Polska Gm
A: Medelpad
C: Jöns Persson, Borgsjö
F: http://richardrobinson.tunebook.org.uk/Tune/1345
L: 1/16
M: 3/4
O: Sweden
Q: 1/4=80
R: Polska
K: GMinor
|: D2G2 G2AG FGFE | D2G2 G2^FG A4 || D2B2 B2AG B2A2 | G2^FG ABAG F2D2 |
| D2G2 G2AG FGFE | D2G2 G2^FG A4 || D2B2 B2AG B2dB | AcA^F G8:|
|: G,2d2 d2ed cecA | BABc d^cd^F G2A2 | A2 B2 B2AG B2A2 | G2^FG ABAG F2D2 |
| D2d2 d2ed cecA | BABc d^cd^F G2A2 || A2B2 B2AG B2dB | AcA^F G8 :|
|
|
